packages/heroicons/src/prism/files-empty.svg

<!-- Generated by IcoMoon.io -->
<svg version="1.1" xmlns="http://www.w3.org/2000/svg" width="16" height="16" viewBox="0 0 16 16">
<title>files-empty</title>
<path fill="#4a4a4a" d="M14.341 5.579c-0.347-0.473-0.831-1.027-1.362-1.558s-1.085-1.015-1.558-1.362c-0.806-0.591-1.197-0.659-1.421-0.659h-5.75c-0.689 0-1.25 0.561-1.25 1.25v11.5c0 0.689 0.561 1.25 1.25 1.25h9.5c0.689 0 1.25-0.561 1.25-1.25v-7.75c0-0.224-0.068-0.615-0.659-1.421zM12.271 4.729c0.48 0.48 0.856 0.912 1.134 1.271h-2.406v-2.405c0.359 0.278 0.792 0.654 1.271 1.134v0zM14 14.75c0 0.136-0.114 0.25-0.25 0.25h-9.5c-0.136 0-0.25-0.114-0.25-0.25v-11.5c0-0.135 0.114-0.25 0.25-0.25 0 0 5.749-0 5.75 0v3.5c0 0.276 0.224 0.5 0.5 0.5h3.5v7.75zM9.421 0.659c-0.806-0.591-1.197-0.659-1.421-0.659h-5.75c-0.689 0-1.25 0.561-1.25 1.25v11.5c0 0.604 0.43 1.109 1 1.225v-12.725c0-0.135 0.115-0.25 0.25-0.25h7.607c-0.151-0.124-0.297-0.238-0.437-0.341z"></path>
</svg>

<svg xmlns="http://www.w3.org/2000/svg" aria-hidden="true" fill="currentColor" viewBox="0 0 16 16">
  <path d="M14.341 5.579c-.347-.473-.831-1.027-1.362-1.558s-1.085-1.015-1.558-1.362C10.615 2.068 10.224 2 10 2H4.25C3.561 2 3 2.561 3 3.25v11.5c0 .689.561 1.25 1.25 1.25h9.5c.689 0 1.25-.561 1.25-1.25V7c0-.224-.068-.615-.659-1.421zm-2.07-.85c.48.48.856.912 1.134 1.271h-2.406V3.595c.359.278.792.654 1.271 1.134zM14 14.75c0 .136-.114.25-.25.25h-9.5a.253.253 0 01-.25-.25V3.25c0-.135.114-.25.25-.25H10v3.5a.5.5 0 00.5.5H14v7.75z"/>
  <path d="M9.421.659C8.615.068 8.224 0 8 0H2.25C1.561 0 1 .561 1 1.25v11.5c0 .604.43 1.109 1 1.225V1.25c0-.135.115-.25.25-.25h7.607A10.455 10.455 0 009.42.659z"/>
</svg>
